X:1
T:Title
%%score 1 2 3
L:1/8
Q:1/4=150
M:4/4
K:A
V:1 treble nm="Grand Piano"
V:2 treble nm="Grand Piano, Melody"
V:3 bass nm="Grand Piano"
V:1
 z4 c4 | A2 A2 A2 B2 | c2 c2 B4 | A4 c2 c2 | c2 Bc e3 e | c4 c4 | A2 A2 A2 B2 | c2 c2 B4 | %8
 A4 c2 c2 | c2 Bc e3 e | c8 | z4 c4 | c2 B2 A2 c2 | e2 e2 c2 c2 | ec B2 A2 c2 | e2 e2 c4 | %16
 e4 c2 c2 | A2 B2 c2 c2 | B4 A4 | c2 c2 cB c2 | e3 [Be] c4 |] %21
V:2
 z4 A,4 | C2 C2 C2 B,2 | A,2 A,2 E4 | E4 F2 F2 | FE C2[K:bass] B,3 G, | A,4 A,4 | C2 C2 C2 B,2 | %7
 A,2 A,2[K:treble] E4 | E4 F2 F2 | F[K:bass]E C2 B,3 G, | A,8 | z4[K:treble] E4 | EF G2 A2 F2 | %13
 G2 E2 EC E2 | EF G2 A2 F2 | G2 E2 F4 | A4 E2 E2 | C2[K:bass] B,2 A,2 A,2 | E4 E4 | F2 F2 FE C2 | %20
 B,3 G, A,4 |] %21
V:3
 z4 A,4 | F,2 F,2 F,2 E,2 | A,2 A,2 E,4 | A,4 F,2 F,2 | F,E, F,2 E,3 E, | A,,4 A,4 | %6
 F,2 F,2 F,2 E,2 | A,2 A,2 E,4 | A,4 F,2 F,2 | F,E, F,2 E,3 E, | A,,8 | z4 A,4 | E,2 E,2 A,2 A,2 | %13
 B,2 G,2 E,2 E,2 | A,2 G,2 F,2 F,2 | E,2 E,2 F,4 | A,4 E,2 E,2 | F,2 E,2 A,2 A,2 | E,4 A,4 | %19
 F,2 F,2 F,E, F,2 | E,3 E, A,,4 |] %21

